gloss/img/location.svg

<svg width="24" height="24" viewBox="0 0 24 24" fill="none" xmlns="http://www.w3.org/2000/svg">
<path fill-rule="evenodd" clip-rule="evenodd" d="M11.9978 21.1889L12.7189 20.3763C13.5372 19.4391 14.2732 18.55 14.9281 17.7043L15.4686 16.9911C17.7258 13.95 18.8549 11.5363 18.8549 9.75228C18.8549 5.94428 15.7852 2.85742 11.9978 2.85742C8.21034 2.85742 5.14062 5.94428 5.14062 9.75228C5.14062 11.5363 6.26977 13.95 8.52691 16.9911L9.06748 17.7043C10.0017 18.9013 10.9791 20.0628 11.9978 21.1889Z" stroke="white" stroke-opacity="0.5" stroke-width="1.14286" stroke-linecap="round" stroke-linejoin="round"/>
<path d="M11.9978 12.5717C13.5757 12.5717 14.8549 11.2925 14.8549 9.71456C14.8549 8.13661 13.5757 6.85742 11.9978 6.85742C10.4198 6.85742 9.14062 8.13661 9.14062 9.71456C9.14062 11.2925 10.4198 12.5717 11.9978 12.5717Z" stroke="white" stroke-opacity="0.5" stroke-width="1.14286" stroke-linecap="round" stroke-linejoin="round"/>
</svg>

<svg xmlns="http://www.w3.org/2000/svg" width="24" height="24" fill="none"><path stroke="#fff" stroke-linecap="round" stroke-linejoin="round" stroke-opacity=".5" stroke-width="1.143" d="m11.998 21.189.72-.813a59 59 0 0 0 2.21-2.672l.54-.713q3.387-4.562 3.387-7.239c0-3.808-3.07-6.895-6.857-6.895S5.14 5.944 5.14 9.752q0 2.677 3.386 7.24l.54.712a63 63 0 0 0 2.93 3.485" clip-rule="evenodd"/><path stroke="#fff" stroke-linecap="round" stroke-linejoin="round" stroke-opacity=".5" stroke-width="1.143" d="M11.998 12.572a2.857 2.857 0 1 0 0-5.715 2.857 2.857 0 0 0 0 5.715"/></svg>
